communes/218.svg

<?xml version="1.0" encoding="UTF-8" standalone="no"?>
<svg
   xmlns:dc="http://purl.org/dc/elements/1.1/"
   xmlns:cc="http://creativecommons.org/ns#"
   xmlns:rdf="http://www.w3.org/1999/02/22-rdf-syntax-ns#"
   xmlns:svg="http://www.w3.org/2000/svg"
   xmlns="http://www.w3.org/2000/svg"
   xmlns:xlink="http://www.w3.org/1999/xlink"
   xmlns:sodipodi="http://sodipodi.sourceforge.net/DTD/sodipodi-0.dtd"
   xmlns:inkscape="http://www.inkscape.org/namespaces/inkscape"
   version="1.0"
   width="221.63931"
   height="259.61594"
   id="svg2780"
   sodipodi:docname="218.svg">
  <metadata
     id="metadata13">
    <rdf:RDF>
      <cc:Work
         rdf:about="">
        <dc:format>image/svg+xml</dc:format>
        <dc:type
           rdf:resource="http://purl.org/dc/dcmitype/StillImage" />
      </cc:Work>
    </rdf:RDF>
  </metadata>
  <sodipodi:namedview
     pagecolor="#ffffff"
     bordercolor="#666666"
     borderopacity="1"
     objecttolerance="10"
     gridtolerance="10"
     guidetolerance="10"
     inkscape:pageopacity="0"
     inkscape:pageshadow="2"
     inkscape:window-width="640"
     inkscape:window-height="480"
     id="namedview11" />
  <defs
     id="defs2782" />
  <g
     transform="translate(-13.669082,-816.76274)"
     id="layer1">
    <path
       d="M 14.669082,817.76275 L 18.66252,985.51266 C 21.514968,1105.334 227.4625,1105.334 230.31496,985.51266 L 234.30839,817.76275 L 14.669082,817.76275 z"
       id="path3282"
       style="fill:#ffffff;fill-opacity:1;fill-rule:evenodd;stroke:none;stroke-width:2;stroke-linecap:butt;stroke-miterlimit:4;stroke-dashoffset:0;stroke-opacity:1" />
    <path
       d="M 14.65625,13.4375 L 16.0625,72.8125 L 187.0625,254.875 C 211.85124,240.24059 229.49143,215.6777 230.3125,181.1875 L 230.46875,174.34375 L 79.375,13.4375 L 14.65625,13.4375 z"
       transform="translate(0,804.33069)"
       id="rect2521"
       style="color:#000000;fill:#3178d8;fill-opacity:1;fill-rule:evenodd;stroke:#000000;stroke-width:1.00000012px;stroke-linecap:butt;stroke-linejoin:miter;marker:none;marker-start:none;marker-mid:none;marker-end:none;stroke-miterlimit:4;stroke-dasharray:none;stroke-dashoffset:0;stroke-opacity:1;visibility:visible;display:inline;overflow:visible;enable-background:accumulate" />
    <path
       d="M 88.509105,890.2851 C 72.44028,905.37643 37.744523,902.97642 30.3206,870.6889 C 43.638747,886.27636 63.171444,883.28818 73.142766,873.92344 C 83.114087,864.55869 87.320662,845.2517 72.598613,830.98274 C 104.35733,840.41581 104.57794,875.19377 88.509105,890.2851 z"
       id="path2510"
       style="fill:#f7de39;fill-opacity:1;fill-rule:evenodd;stroke:#000000;stroke-width:0.99921262;stroke-linecap:butt;stroke-linejoin:round;stroke-miterlimit:4;stroke-dasharray:none;stroke-opacity:1" />
    <use
       transform="translate(50.744419,55.403572)"
       id="use2517"
       x="0"
       y="0"
       width="248.03149"
       height="248.03149"
       xlink:href="#path2510" />
    <use
       transform="translate(50.744418,55.40357)"
       id="use2519"
       x="0"
       y="0"
       width="248.03149"
       height="248.03149"
       xlink:href="#use2517" />
    <path
       d="M 14.669082,817.76275 L 18.66252,985.51266 C 21.514968,1105.334 227.4625,1105.334 230.31496,985.51266 L 234.30839,817.76275 L 14.669082,817.76275 z"
       id="path3554"
       style="fill:none;fill-opacity:1;fill-rule:evenodd;stroke:#000000;stroke-width:2;stroke-linecap:butt;stroke-miterlimit:4;stroke-dashoffset:0;stroke-opacity:1" />
  </g>
</svg>

<?xml version="1.0" encoding="UTF-8"?>
<svg version="1.0" viewBox="0 0 221.64 259.62" xmlns="http://www.w3.org/2000/svg" xmlns:cc="http://creativecommons.org/ns#" xmlns:dc="http://purl.org/dc/elements/1.1/" xmlns:rdf="http://www.w3.org/1999/02/22-rdf-syntax-ns#" xmlns:xlink="http://www.w3.org/1999/xlink">
<metadata>
<rdf:RDF>
<cc:Work rdf:about="">
<dc:format>image/svg+xml</dc:format>
<dc:type rdf:resource="http://purl.org/dc/dcmitype/StillImage"/>
</cc:Work>
</rdf:RDF>
</metadata>
<g transform="translate(-13.669 -816.76)">
<path d="m14.669 817.76 3.9934 167.75c2.8524 119.82 208.8 119.82 211.65 0l3.9934-167.75h-219.64z" fill="#fff" fill-rule="evenodd"/>
<path transform="translate(0 804.33)" d="m14.656 13.438 1.4062 59.375 171 182.06c24.789-14.634 42.429-39.197 43.25-73.688l0.15625-6.8438-151.09-160.91h-64.719z" color="#000000" fill="#3178d8" fill-rule="evenodd" stroke="#000" stroke-width="1px"/>
<path id="b" d="m88.509 890.29c-16.069 15.091-50.765 12.691-58.189-19.596 13.318 15.587 32.851 12.599 42.822 3.2345 9.9713-9.3648 14.178-28.672-0.54415-42.941 31.759 9.4331 31.979 44.211 15.91 59.302z" fill="#f7de39" fill-rule="evenodd" stroke="#000" stroke-linejoin="round" stroke-width=".99921"/>
<use id="a" transform="translate(50.744 55.404)" width="248.03149" height="248.03149" xlink:href="#b"/>
<use transform="translate(50.744 55.404)" width="248.03149" height="248.03149" xlink:href="#a"/>
<path d="m14.669 817.76 3.9934 167.75c2.8524 119.82 208.8 119.82 211.65 0l3.9934-167.75h-219.64z" fill="none" stroke="#000" stroke-width="2"/>
</g>
</svg>
